svgs/regular/traffic-cone.svg

<svg xmlns="http://www.w3.org/2000/svg" viewBox="0 0 512 512"><!--! Font Awesome Pro 6.2.0 by @fontawesome - https://fontawesome.com License - https://fontawesome.com/license (Commercial License) Copyright 2022 Fonticons, Inc. --><path d="M217.8 14.96C221.4 5.914 230.2 0 240 0H272C281.8 0 290.6 5.914 294.2 14.96L476.9 464H488C501.3 464 512 474.7 512 488C512 501.3 501.3 512 488 512H24C10.75 512 0 501.3 0 488C0 474.7 10.75 464 24 464H35.11L217.8 14.96zM125.1 368L86.93 464H425.1L386 368H125.1zM366.5 320L320.9 208H191.1L145.5 320H366.5zM210.6 160H301.4L255.1 48.36L210.6 160z"/></svg>

<svg xmlns="http://www.w3.org/2000/svg" viewBox="0 0 512 512"><!--! Font Awesome Pro 6.3.0 by @fontawesome - https://fontawesome.com License - https://fontawesome.com/license (Commercial License) Copyright 2023 Fonticons, Inc. --><path d="M217.8 15c3.7-9 12.5-15 22.2-15h32c9.8 0 18.6 5.9 22.2 15L476.9 464H488c13.3 0 24 10.7 24 24s-10.7 24-24 24H24c-13.3 0-24-10.7-24-24s10.7-24 24-24H35.1L217.8 15zM386 368H126L86.9 464H425.1l-39-96zm-19.5-48L320.9 208H191.1L145.5 320h221zM210.6 160h90.8L256 48.4 210.6 160z"/></svg>
